!!!SOCIAL_FUNCTION:	songs of the drum religion
!!!PDT:	1932
!!!OTL: No_94_Song_for_North_Stake_of_Drum.krn
!!!REG: Wisconsin
!!!LANG: Non-Tone
!!!LING_GROUP: Algonquin
**kern
*staff1
=1-
*clefF4
*k[f#c#g#d#a#]
*M2/4
8.c#\L
16c#\Jk
12d#\L
12B\
12B\J
=2
8.B\L
16B\Jk
8B\
8r
=3
8.c#\L
16c#\Jk
12d#\L
12B\
12B\J
=4
8.B\L
16B\Jk
4B\
=5!|:
12c#\L
12B\
12B\J
8.B\L
16B\Jk
=6
12B\L
12F#\
12F#\J
4G#\
=7
12F#\L
12D#\
12D#\J
8.BB/L
16BB/Jk
=8
4.BB/
8r
=9||
*M3/4
12E\L
12E\
12D#\J
8.BB/L
16BB/Jk
4BB/
=10||
*M2/4
12C#/L
12BB/
12BB/J
8.BB/L
16BB/Jk
=11
8BB/
8r
8BB/L
8BB/J
=12||
*M3/4
2BB/
8BB/
8r
=13
*M2/4
8B\L
8B\J
4B\
==:|!
*-
